images/linkedIn-icon.svg

<svg width="41" height="41" viewBox="0 0 41 41" fill="none" xmlns="http://www.w3.org/2000/svg">
<path fill-rule="evenodd" clip-rule="evenodd" d="M31.1726 29.9765V22.0337C31.1726 17.7752 28.8999 15.7896 25.8735 15.7896C25.0379 15.7571 24.2093 15.954 23.4776 16.3588C22.7459 16.7637 22.1388 17.3611 21.7224 18.0863V16.1245H17.1172C17.1172 17.4164 17.1172 29.9765 17.1172 29.9765H21.7224V22.2371C21.7036 21.8568 21.7523 21.4761 21.8661 21.1127C22.0416 20.6188 22.3661 20.1914 22.7945 19.8893C23.2229 19.5873 23.7343 19.4254 24.2585 19.426C25.9212 19.426 26.591 20.694 26.591 22.5601V29.9765H31.1726Z" fill="#0A1624"/>
<path fill-rule="evenodd" clip-rule="evenodd" d="M12.2125 14.1991C12.5496 14.1991 12.8835 14.1325 13.1949 14.0031C13.5062 13.8737 13.789 13.6841 14.0269 13.4451C14.2648 13.2061 14.453 12.9225 14.5809 12.6105C14.7089 12.2985 14.7741 11.9644 14.7725 11.6272C14.7662 10.9461 14.4912 10.2951 14.0073 9.81567C13.5235 9.33627 12.8697 9.06735 12.1885 9.06738C11.8513 9.06894 11.5177 9.1371 11.207 9.26794C10.8962 9.39879 10.6146 9.58974 10.3779 9.82983C10.1411 10.0699 9.95384 10.3544 9.82735 10.667C9.70087 10.9795 9.63758 11.314 9.64074 11.6511C9.64074 12.3269 9.90908 12.975 10.3869 13.4528C10.8647 13.9307 11.5128 14.1991 12.1885 14.1991H12.2125Z" fill="#0A1624"/>
<path d="M14.5234 16.125H9.91797V29.977H14.5234V16.125Z" fill="#0A1624"/>
</svg>

<?xml version="1.0" encoding="utf-8"?>
<!-- Generator: Adobe Illustrator 27.0.0, SVG Export Plug-In . SVG Version: 6.00 Build 0)  -->
<svg version="1.1" id="Layer_1" xmlns="http://www.w3.org/2000/svg" xmlns:xlink="http://www.w3.org/1999/xlink" x="0px" y="0px"
	 viewBox="0 0 41 41" style="enable-background:new 0 0 41 41;" xml:space="preserve">
<style type="text/css">
	.st0{fill-rule:evenodd;clip-rule:evenodd;fill:#0A1624;}
</style>
<path class="st0" d="M31.2,30V22c0-4.3-2.3-6.2-5.3-6.2c-0.8,0-1.7,0.2-2.4,0.6c-0.7,0.4-1.3,1-1.8,1.7v-2h-4.6c0,1.3,0,13.9,0,13.9
	h4.6v-7.7c0-0.4,0-0.8,0.1-1.1c0.2-0.5,0.5-0.9,0.9-1.2c0.4-0.3,0.9-0.5,1.5-0.5c1.7,0,2.3,1.3,2.3,3.1V30H31.2z M12.2,14.2
	c0.3,0,0.7-0.1,1-0.2c0.3-0.1,0.6-0.3,0.8-0.6c0.2-0.2,0.4-0.5,0.6-0.8c0.1-0.3,0.2-0.6,0.2-1c0-0.7-0.3-1.3-0.8-1.8
	c-0.5-0.5-1.1-0.7-1.8-0.7c-0.3,0-0.7,0.1-1,0.2c-0.3,0.1-0.6,0.3-0.8,0.6c-0.2,0.2-0.4,0.5-0.6,0.8c-0.1,0.3-0.2,0.6-0.2,1
	c0,0.7,0.3,1.3,0.7,1.8C10.9,13.9,11.5,14.2,12.2,14.2L12.2,14.2z M14.5,16.1H9.9V30h4.6V16.1z"/>
</svg>
